src/main/resources/icons/SpringBootCloudIcons/icons/springCloudFileSet.svg

<svg xmlns="http://www.w3.org/2000/svg" width="16" height="16" viewBox="0 0 16 16">
  <g fill="none" fill-rule="evenodd">
    <path fill="#9AA7B0" fill-opacity=".8" d="M10,9.34460402 C9.3365932,9.66765218 8.79243401,10.1981934 8.45208333,10.8516667 C8.22871567,10.8754134 8.0133981,10.9259537 7.80937936,11 L2,11 L2,5 L6,5 L6,1 L10,1 L10,9.34460402 Z M12,9.03607315 C11.836792,9.01230326 11.6698448,9 11.5,9 C11.3301876,9 11.1632376,9.01235395 11,9.03621201 L11,3 L12,3 L12,9.03607315 Z M6.0620791,13 L3,13 L3,12 L6.50178248,12 C6.29300767,12.2956827 6.14114907,12.6343702 6.0620791,13 Z M14,10.0798041 C13.7156188,9.77756701 13.3771448,9.52709923 13,9.34373424 L13,5 L14,5 L14,10.0798041 Z M6.39334233,15 L5,15 L5,14 L6.03146119,14 C6.08650762,14.3610924 6.21196098,14.6992521 6.39334233,15 Z M5,1 L5,4 L2,4 L5,1 Z"/>
    <path fill="#9AA7B0" d="M14.25625,12.265 C14.00125,10.97125 12.865,10 11.5,10 C10.41625,10 9.475,10.615 9.00625,11.515 C7.8775,11.635 7,12.59125 7,13.75 C7,14.99125 8.00875,16 9.25,16 L14.125,16 C15.16,16 16,15.16 16,14.125 C16,13.135 15.23125,12.3325 14.25625,12.265 Z"/>
  </g>
</svg>

<svg xmlns="http://www.w3.org/2000/svg" width="16" height="16" viewBox="0 0 16 16"><rect id="frame" width="16" height="16" fill="none"/><g fill="#9AA7B0" fill-rule="evenodd"><path fill-opacity=".8" d="M10 9.345a3.453 3.453 0 0 0-1.548 1.507A2.728 2.728 0 0 0 7.81 11H2V5h4V1h4v8.345zm2-.309a3.468 3.468 0 0 0-1 0V3h1v6.036zM6.062 13H3v-1h3.502c-.209.296-.36.634-.44 1zM14 10.08a3.438 3.438 0 0 0-1-.736V5h1v5.08zM6.393 15H5v-1h1.031c.056.361.181.7.362 1zM5 1v3H2l3-3z"/><path d="M14.256 12.265a2.809 2.809 0 0 0-5.25-.75A2.248 2.248 0 0 0 9.25 16h4.875C15.16 16 16 15.16 16 14.125c0-.99-.769-1.793-1.744-1.86z"/></g></svg>
